X: 1
T:Abbotts Bromley Horn Dance
% Nottingham Music Database
S:EFDSS
M:6/8
K:Gm
P:A
g|"Gm"d2g B2g|"Gm"d2g G2B|"Cm"ABc "Gm/d"Bcd|"D7"cBA "Gm"G2g|
"Gm"d2g B2g|"Gm"d2g G2B|"Cm"ABc "Gm/d"Bcd|"D7"cBA "Gm"G2:|
P:B
g|"Cm"e2g efg|"Cm"c2e cde|"F"ABc "Gm"BAG|"Dm"FGA D2b|
"Gm"g2b gab|"Cm"e2g efg|"Dm"fed cBA|"Gm"G3 G2:|
P:C
c|"Gm"ded "Cm"e3|"Gm"ded "Cm"g3|"Gm"ded "D7"cBA|"Gm"B3 "D7"B2c|
"Gm"ded "Cm"e3|"Gm/bb"ded "Cm"g3|"Gm/d"ded "D7"cBA|"Gm"G3 G2||


